X:369
T: How Imperfect is Expression
N: O'Farrell's Pocket Companion v.4 (Sky ed. p.159)
M: 2/4
L: 1/8
Q: 150
R: march
K: G
G| d3d| edcB| B3B| cBAG| G>BB>d| d2 e>d| de/d/ cB| B>G A2|
d3d| edcB| B2Bd| cBAG|  G>BB>d| d2 e>c| d>BA>B| G2 z :|
z| A3A| BAA2| BdcB| A2G2| G>BB>d| d2ed | de/d/ cB| B2A2|
d2 d/e/f/g/| edcB| B2 B/c/d/e/| cBAG| G>BB>d|
dge>c| d<BA>B| G2 z :|
